dist/images/icon-rent-3.svg

<svg xmlns="http://www.w3.org/2000/svg" width="26" height="42" fill="#fff"><path d="M3.88 5.4c-.037.976-.052 1.5.407 3.155.877-.356 2.366-.628 4.813-.155 2.603.545 3.854 1.344 5.73 2.066 1.76 2.214 3.3 1.359 6.37.934.985-3.059.974-4.544.922-6H3.88zm8.778 10.172c1.082 0 .753.342.753.759 0 .42.329 1.569-.753 1.569-.415 0-.753-1.149-.753-1.569 0-.417.338-.759.753-.759zM9.449 12.38c.414 0 .753-.003.753.416a.756.756 0 01-.753.758c-.109 0-.753-.339-.753-.758s.644-.416.753-.416zm7.011 1.6c.001 0 .338.341.338.758 0 .419-.337.759-.338.759-.83 0-1.167-.34-1.167-.759 0-.417.337-.758 1.167-.758zm-2.786 8.135c1.226 0 .753.341.753.759 0 .419.473.759-.753.759a.757.757 0 01-.753-.759c0-.418.338-.759.753-.759zm-1.92 2.39c.415 0 .753.34.753.759 0 .418-.338.946-.753.946-.414 0-.554-.528-.554-.946 0-.419.14-.759.554-.759zM9.938 34.35c.417 0 .753.027.753.444 0 .42-.336.759-.753.759a.755.755 0 01-.753-.759c0-.417.337-.444.753-.444zm3.774 1.194c-.363-.054-.002-.369-.002-.75 0-.38-.361.186.002-.354v-.09h2.878c1.01 0 .753.027.753.444 0 .42.257.759-.753.759h-2.878v-.009zm-9.77 1.354c-.025.046-.135.782-.135 1.072H22.74c-.61-.55-.781-.994-.823-1.072-.006-.011-2.197-3.439-4.306-4.943-1.794-1.281-3.952-2.309-4.681-2.641-.728.332-2.51 1.36-4.682 2.641-2.108 1.504-4.3 4.932-4.306 4.943zm-.027-1.473c.905-.995 2.202-3.452 3.517-4.065 2.313-1.975 5.205-3.231 5.213-3.234.092.754.19.574.282.594h.005c.328-.02.19.16.282-.594.009.003 2.901 1.259 5.214 3.234 1.392.93 2.765 2.892 3.673 4.307.139-1.8-.195-3.954-.37-5.257-.335-3.578-8.167-9.966-8.189-9.984a.76.76 0 01-.006-1.169c.375-.351 3.948-3.693 6.241-6.389-2.846.518-4.12.397-6.5-1.123-1.015.215-2.139-1.366-4.571-1.856-2.46-.495-2.726-.128-4.079.401.241.562.554 1.279.961 2.57 2.302 2.24 6.901 6.415 6.914 6.428.303.285.318 1.222.036 1.066a.726.726 0 01-.076.071l.002.001c-.022.018-7.855 6.406-8.19 9.984-.166 1.229-.282 3.267-.359 5.015zM25.991 42.8H.19v-3.239c0-1.296 1.16-2.366 2.116-2.441.045-1.647.185-4.445.474-7.233.333-3.185 6.101-8.386 8.078-10.081-1.356-1.289-4.612-4.447-6.447-6.516-.584-1.002-1.004-2.054-1.307-2.71.546-.61.316-.703.256-.799-1.036-3.006-1.02-3.387-.978-4.874C1.76 4.873.16 3.786.16 2.462V.16h25.828v2.302c0 1.322-1.06 2.414-2.367 2.445.053 1.871.069 3.927-1.361 7.006-.02.063-.048.427-.083.967.123-.442-.366-.125-.583.41-1.835 2.069-5.09 5.227-6.447 6.516 1.977 1.695 7.745 6.896 8.078 10.081.29 2.788.43 5.586.475 7.233a2.449 2.449 0 012.291 2.441V42.8z"/></svg>

<svg xmlns="http://www.w3.org/2000/svg" width="26px" height="42px" viewBox="0 0 26 42" fill="#ffffff">
<path d="M3.880,5.40 C3.843,6.376 3.828,6.9 4.287,8.555 C5.164,8.199 6.653,7.927 9.1,8.400 C11.703,8.945 12.954,9.744 14.83,10.466 C16.590,12.68 18.130,11.825 21.20,11.40 C22.185,8.341 22.174,6.856 22.122,5.40 L3.880,5.40 L3.880,5.40 ZM12.658,15.572 C13.74,15.572 13.411,15.914 13.411,16.331 C13.411,16.751 13.74,17.90 12.658,17.90 C12.243,17.90 11.905,16.751 11.905,16.331 C11.905,15.914 12.243,15.572 12.658,15.572 L12.658,15.572 ZM9.449,12.38 C9.863,12.38 10.202,12.377 10.202,12.796 C10.202,13.215 9.863,13.554 9.449,13.554 C9.34,13.554 8.696,13.215 8.696,12.796 C8.696,12.377 9.34,12.38 9.449,12.38 L9.449,12.38 ZM16.46,13.980 C16.461,13.980 16.798,14.321 16.798,14.738 C16.798,15.157 16.461,15.497 16.46,15.497 C15.630,15.497 15.293,15.157 15.293,14.738 C15.293,14.321 15.630,13.980 16.46,13.980 L16.46,13.980 ZM13.674,22.115 C14.90,22.115 14.427,22.456 14.427,22.874 C14.427,23.293 14.90,23.633 13.674,23.633 C13.259,23.633 12.921,23.293 12.921,22.874 C12.921,22.456 13.259,22.115 13.674,22.115 L13.674,22.115 ZM11.754,24.505 C12.169,24.505 12.507,24.845 12.507,25.264 C12.507,25.682 12.169,26.21 11.754,26.21 C11.340,26.21 11.2,25.682 11.2,25.264 C11.2,24.845 11.340,24.505 11.754,24.505 L11.754,24.505 ZM9.938,34.35 C10.355,34.35 10.691,34.377 10.691,34.794 C10.691,35.214 10.355,35.553 9.938,35.553 C9.522,35.553 9.185,35.214 9.185,34.794 C9.185,34.377 9.522,34.35 9.938,34.35 L9.938,34.35 ZM13.712,35.544 C13.349,35.490 13.71,35.175 13.71,34.794 C13.71,34.414 13.349,34.98 13.712,34.44 L13.712,34.35 L13.823,34.35 L16.590,34.35 C17.6,34.35 17.343,34.377 17.343,34.794 C17.343,35.214 17.6,35.553 16.590,35.553 L13.823,35.553 L13.712,35.553 L13.712,35.544 L13.712,35.544 ZM3.942,36.898 C3.917,36.944 3.807,37.68 3.807,37.97 L22.74,37.97 C22.13,37.42 21.959,36.976 21.917,36.898 C21.911,36.887 19.720,33.459 17.611,31.955 C15.817,30.674 13.659,29.646 12.930,29.314 C12.202,29.646 10.42,30.674 8.248,31.955 C6.140,33.459 3.948,36.887 3.942,36.898 L3.942,36.898 ZM3.915,35.425 C4.820,34.43 6.117,31.973 7.432,31.36 C9.745,29.385 12.637,28.129 12.645,28.126 C12.737,28.88 12.835,28.70 12.927,28.72 L12.932,28.72 C13.26,28.70 13.122,28.88 13.214,28.126 C13.223,28.129 16.115,29.385 18.428,31.36 C19.820,32.29 21.193,34.252 22.101,35.667 C22.24,33.867 21.906,31.713 21.731,30.41 C21.396,26.832 13.564,20.444 13.542,20.426 C13.220,20.162 13.172,19.685 13.433,19.362 C13.464,19.323 13.499,19.288 13.536,19.257 C13.911,18.906 17.484,15.564 19.777,12.868 C16.931,13.386 15.657,13.265 13.277,11.745 C12.262,11.96 11.138,10.379 8.706,9.889 C6.246,9.394 5.98,9.761 4.627,10.29 C4.868,10.852 5.181,11.569 5.588,12.86 C7.890,15.10 12.489,19.275 12.502,19.288 C12.805,19.573 12.820,20.51 12.538,20.354 C12.514,20.380 12.489,20.403 12.462,20.425 L12.464,20.426 C12.442,20.444 4.609,26.832 4.274,30.41 C4.108,31.639 3.992,33.677 3.915,35.425 L3.915,35.425 ZM25.991,42.8 L0.19,42.8 L0.19,39.561 C0.19,38.265 1.35,37.195 2.306,37.120 C2.351,35.473 2.491,32.675 2.780,29.887 C3.113,26.702 8.881,21.501 10.858,19.806 C9.502,18.517 6.246,15.359 4.411,13.29 C3.827,12.288 3.407,11.236 3.104,10.58 C3.65,9.970 3.42,9.877 3.36,9.781 C2.324,6.775 2.340,6.394 2.382,4.907 C1.76,4.873 0.16,3.786 0.16,2.462 L0.16,0.16 L25.988,0.16 L25.988,2.462 C25.988,3.784 24.928,4.876 23.621,4.907 C23.674,6.778 23.690,8.834 22.260,11.913 C22.240,11.976 22.212,12.34 22.177,12.88 C22.3,12.438 21.811,12.755 21.594,13.29 C19.759,15.359 16.504,18.517 15.147,19.806 C17.124,21.501 22.892,26.702 23.225,29.887 C23.515,32.675 23.655,35.473 23.700,37.120 C24.972,37.192 25.991,38.267 25.991,39.561 L25.991,42.8 L25.991,42.8 Z"/>
